X: 20
T: Temperance Reel
T: Teetolaler's Reel
O: Ryan 1883
R: reel
B: Ryan’s Mammoth Collection, 1883
Z: 1997 by John Chambers <jc:trillian.mit.edu>
M: C|
L: 1/8
K: G
|: "G"G2GF GABc | dBge dBAc | "Em"BEED EFGA | "D7"BGAF GFED | "G"G2GF GABc |
| dBge dBAc | "Em"BEED "(C)"EFGA | "D7"BGAF "G"G4 :: "Em"Beed e3f | geaf gfed |
| "D"Bdde d3e | fdaf gefd | "Em"Beed e3f | geaf gfed |  BEED "(C)"EFGA | "D7"BGAF "G"G4 :|

%%sep 1 1 500
%%sep 1 1 500

